gtk-icons/Papirus-GTK/22x22/panel/smartphone-symbolic.svg

<?xml version="1.0" encoding="UTF-8" standalone="no"?>
<!-- Created with Inkscape (http://www.inkscape.org/) -->
<svg id="svg6530" xmlns:rdf="http://www.w3.org/1999/02/22-rdf-syntax-ns#" xmlns="http://www.w3.org/2000/svg" height="22" viewBox="0 0 22 22" width="22" version="1.1" xmlns:cc="http://creativecommons.org/ns#" xmlns:xlink="http://www.w3.org/1999/xlink" xmlns:dc="http://purl.org/dc/elements/1.1/">
 <metadata id="metadata6535">
  <rdf:RDF>
   <cc:Work rdf:about="">
    <dc:format>image/svg+xml</dc:format>
    <dc:type rdf:resource="http://purl.org/dc/dcmitype/StillImage"/>
    <dc:title/>
   </cc:Work>
  </rdf:RDF>
 </metadata>
 <g id="layer1" transform="translate(-33 -743.36)">
  <rect id="rect10668" style="color:#dddddd" transform="rotate(90)" height="22" width="22" y="-55" x="743.36" fill="none"/>
  <path id="path10670" d="m7 3c-1 0-1 1-1 1v14s0 1 1 1h8c1 0 1-1 1-1v-14s0-1-1-1h-8zm1 2.0039h6v9.9961h-6v-9.9961zm3 10.996a1 1 0 0 1 1 1 1 1 0 0 1 -1 1 1 1 0 0 1 -1 -1 1 1 0 0 1 1 -1z" transform="translate(33 743.36)" fill="#fff"/>
 </g>
</svg>

<?xml version="1.0" encoding="UTF-8" standalone="no"?>
<!-- Created with Inkscape (http://www.inkscape.org/) -->

<svg
   xmlns:dc="http://purl.org/dc/elements/1.1/"
   xmlns:cc="http://creativecommons.org/ns#"
   xmlns:rdf="http://www.w3.org/1999/02/22-rdf-syntax-ns#"
   xmlns:svg="http://www.w3.org/2000/svg"
   xmlns="http://www.w3.org/2000/svg"
   xmlns:xlink="http://www.w3.org/1999/xlink"
   xmlns:sodipodi="http://sodipodi.sourceforge.net/DTD/sodipodi-0.dtd"
   xmlns:inkscape="http://www.inkscape.org/namespaces/inkscape"
   sodipodi:docname="smartphone-symbolic.svg"
   height="22"
   id="svg6530"
   version="1.1"
   inkscape:version="0.91 r"
   viewBox="0 0 22 22"
   width="22">
  <defs
     id="defs6532">
    <linearGradient
       id="linearGradient4947">
      <stop
         id="stop4949"
         offset="0"
         style="stop-color:#dbdee0;stop-opacity:1" />
      <stop
         id="stop4951"
         offset="1"
         style="stop-color:#dbdee0;stop-opacity:0" />
    </linearGradient>
    <linearGradient
       inkscape:collect="always"
       gradientTransform="translate(448,368)"
       gradientUnits="userSpaceOnUse"
       xlink:href="#linearGradient4947"
       id="linearGradient3780"
       x1="12"
       x2="23"
       y1="6"
       y2="10" />
    <linearGradient
       id="linearGradient3768">
      <stop
         id="stop3770"
         offset="0"
         style="stop-color:#dbdee0;stop-opacity:1" />
      <stop
         id="stop3772"
         offset="1"
         style="stop-color:#dbdee0;stop-opacity:0" />
    </linearGradient>
    <linearGradient
       inkscape:collect="always"
       gradientTransform="matrix(-1,0,0,1,471.875,367.875)"
       gradientUnits="userSpaceOnUse"
       xlink:href="#linearGradient3768"
       id="linearGradient3787"
       x1="5.875"
       x2="3.875"
       y1="31.125"
       y2="4.125" />
    <linearGradient
       inkscape:collect="always"
       gradientTransform="matrix(0.8660254,0.5,-0.5,0.8660254,455.6077,363.6077)"
       gradientUnits="userSpaceOnUse"
       xlink:href="#linearGradient4947"
       id="linearGradient4963"
       x1="12"
       x2="23"
       y1="6"
       y2="10" />
    <linearGradient
       inkscape:collect="always"
       gradientTransform="matrix(-0.8660254,-0.5,-0.5,0.8660254,476.34655,375.43694)"
       gradientUnits="userSpaceOnUse"
       xlink:href="#linearGradient3768"
       id="linearGradient4965"
       x1="5.875"
       x2="3.875"
       y1="31.125"
       y2="4.125" />
    <linearGradient
       inkscape:collect="always"
       gradientTransform="matrix(0.5,0.8660254,-0.8660254,0.5,464.39231,363.6077)"
       gradientUnits="userSpaceOnUse"
       xlink:href="#linearGradient4947"
       id="linearGradient4977"
       x1="12"
       x2="23"
       y1="6"
       y2="10" />
    <linearGradient
       inkscape:collect="always"
       gradientTransform="matrix(-0.5,-0.8660254,-0.8660254,0.5,476.43806,384.22155)"
       gradientUnits="userSpaceOnUse"
       xlink:href="#linearGradient3768"
       id="linearGradient4979"
       x1="5.875"
       x2="3.875"
       y1="31.125"
       y2="4.125" />
    <linearGradient
       inkscape:collect="always"
       gradientTransform="matrix(0,1,-1,0,472,368)"
       gradientUnits="userSpaceOnUse"
       xlink:href="#linearGradient4947"
       id="linearGradient4991"
       x1="12"
       x2="23"
       y1="6"
       y2="10" />
    <linearGradient
       inkscape:collect="always"
       gradientTransform="matrix(0,-1,-1,0,472.125,391.875)"
       gradientUnits="userSpaceOnUse"
       xlink:href="#linearGradient3768"
       id="linearGradient4993"
       x1="5.875"
       x2="3.875"
       y1="31.125"
       y2="4.125" />
    <linearGradient
       inkscape:collect="always"
       gradientTransform="matrix(-0.5,0.8660254,-0.8660254,-0.5,476.3923,375.6077)"
       gradientUnits="userSpaceOnUse"
       xlink:href="#linearGradient4947"
       id="linearGradient5061"
       x1="12"
       x2="23"
       y1="6"
       y2="10" />
    <linearGradient
       inkscape:collect="always"
       gradientTransform="matrix(0.5,-0.8660254,-0.8660254,-0.5,464.56305,396.34656)"
       gradientUnits="userSpaceOnUse"
       xlink:href="#linearGradient3768"
       id="linearGradient5063"
       x1="5.875"
       x2="3.875"
       y1="31.125"
       y2="4.125" />
    <linearGradient
       inkscape:collect="always"
       gradientTransform="matrix(-0.8660254,0.49999999,-0.49999999,-0.8660254,476.3923,384.39231)"
       gradientUnits="userSpaceOnUse"
       xlink:href="#linearGradient4947"
       id="linearGradient5084"
       x1="12"
       x2="23"
       y1="6"
       y2="10" />
    <linearGradient
       inkscape:collect="always"
       gradientTransform="matrix(0.8660254,-0.49999999,-0.49999999,-0.8660254,455.77844,396.43806)"
       gradientUnits="userSpaceOnUse"
       xlink:href="#linearGradient3768"
       id="linearGradient5086"
       x1="5.875"
       x2="3.875"
       y1="31.125"
       y2="4.125" />
    <linearGradient
       inkscape:collect="always"
       gradientTransform="matrix(-0.99999999,0,0,-0.99999999,471.99999,392)"
       gradientUnits="userSpaceOnUse"
       xlink:href="#linearGradient4947"
       id="linearGradient5128"
       x1="12"
       x2="23"
       y1="6"
       y2="10" />
    <linearGradient
       inkscape:collect="always"
       gradientTransform="matrix(0.99999999,0,0,-0.99999999,448.12499,392.125)"
       gradientUnits="userSpaceOnUse"
       xlink:href="#linearGradient3768"
       id="linearGradient5130"
       x1="5.875"
       x2="3.875"
       y1="31.125"
       y2="4.125" />
    <linearGradient
       inkscape:collect="always"
       gradientTransform="matrix(-0.8660254,-0.49999999,0.49999999,-0.8660254,464.3923,396.3923)"
       gradientUnits="userSpaceOnUse"
       xlink:href="#linearGradient4947"
       id="linearGradient5140"
       x1="12"
       x2="23"
       y1="6"
       y2="10" />
    <linearGradient
       inkscape:collect="always"
       gradientTransform="matrix(0.8660254,0.49999999,0.49999999,-0.8660254,443.65344,384.56305)"
       gradientUnits="userSpaceOnUse"
       xlink:href="#linearGradient3768"
       id="linearGradient5142"
       x1="5.875"
       x2="3.875"
       y1="31.125"
       y2="4.125" />
    <linearGradient
       inkscape:collect="always"
       gradientTransform="matrix(-0.5,-0.86602539,0.86602539,-0.5,455.60769,396.3923)"
       gradientUnits="userSpaceOnUse"
       xlink:href="#linearGradient4947"
       id="linearGradient5152"
       x1="12"
       x2="23"
       y1="6"
       y2="10" />
    <linearGradient
       inkscape:collect="always"
       gradientTransform="matrix(0.5,0.86602539,0.86602539,-0.5,443.56194,375.77844)"
       gradientUnits="userSpaceOnUse"
       xlink:href="#linearGradient3768"
       id="linearGradient5154"
       x1="5.875"
       x2="3.875"
       y1="31.125"
       y2="4.125" />
    <linearGradient
       inkscape:collect="always"
       gradientTransform="matrix(0,-0.99999999,0.99999999,0,448,392)"
       gradientUnits="userSpaceOnUse"
       xlink:href="#linearGradient4947"
       id="linearGradient5164"
       x1="12"
       x2="23"
       y1="6"
       y2="10" />
    <linearGradient
       inkscape:collect="always"
       gradientTransform="matrix(0,0.99999999,0.99999999,0,447.875,368.12499)"
       gradientUnits="userSpaceOnUse"
       xlink:href="#linearGradient3768"
       id="linearGradient5166"
       x1="5.875"
       x2="3.875"
       y1="31.125"
       y2="4.125" />
    <linearGradient
       inkscape:collect="always"
       gradientTransform="matrix(0.49999999,-0.8660254,0.8660254,0.49999999,443.6077,384.39231)"
       gradientUnits="userSpaceOnUse"
       xlink:href="#linearGradient4947"
       id="linearGradient5176"
       x1="12"
       x2="23"
       y1="6"
       y2="10" />
    <linearGradient
       inkscape:collect="always"
       gradientTransform="matrix(-0.49999999,0.8660254,0.8660254,0.49999999,455.43695,363.65345)"
       gradientUnits="userSpaceOnUse"
       xlink:href="#linearGradient3768"
       id="linearGradient5178"
       x1="5.875"
       x2="3.875"
       y1="31.125"
       y2="4.125" />
    <linearGradient
       inkscape:collect="always"
       gradientTransform="matrix(0.86602539,-0.5,0.5,0.86602539,443.6077,375.6077)"
       gradientUnits="userSpaceOnUse"
       xlink:href="#linearGradient4947"
       id="linearGradient5188"
       x1="12"
       x2="23"
       y1="6"
       y2="10" />
    <linearGradient
       inkscape:collect="always"
       gradientTransform="matrix(-0.86602539,0.5,0.5,0.86602539,464.22156,363.56195)"
       gradientUnits="userSpaceOnUse"
       xlink:href="#linearGradient3768"
       id="linearGradient5190"
       x1="5.875"
       x2="3.875"
       y1="31.125"
       y2="4.125" />
  </defs>
  <sodipodi:namedview
     inkscape:bbox-nodes="true"
     bordercolor="#666666"
     borderopacity="1.0"
     inkscape:current-layer="layer1"
     inkscape:cx="22.793621"
     inkscape:cy="5.0092018"
     inkscape:document-units="px"
     id="base"
     inkscape:object-nodes="true"
     inkscape:object-paths="true"
     pagecolor="#454d50"
     inkscape:pageopacity="0"
     inkscape:pageshadow="2"
     showgrid="false"
     inkscape:snap-bbox="true"
     inkscape:snap-bbox-edge-midpoints="true"
     inkscape:snap-bbox-midpoints="true"
     inkscape:snap-smooth-nodes="true"
     units="px"
     inkscape:window-height="876"
     inkscape:window-maximized="1"
     inkscape:window-width="1535"
     inkscape:window-x="65"
     inkscape:window-y="24"
     inkscape:zoom="10.66">
    <inkscape:grid
       empspacing="4"
       id="grid8845"
       originx="-32.99999px"
       originy="-286.99827px"
       type="xygrid" />
  </sodipodi:namedview>
  <metadata
     id="metadata6535">
    <rdf:RDF>
      <cc:Work
         rdf:about="">
        <dc:format>image/svg+xml</dc:format>
        <dc:type
           rdf:resource="http://purl.org/dc/dcmitype/StillImage" />
        <dc:title></dc:title>
      </cc:Work>
    </rdf:RDF>
  </metadata>
  <g
     inkscape:groupmode="layer"
     id="layer1"
     inkscape:label="panel"
     transform="translate(-32.999991,-743.36389)">
    <rect
       height="22"
       id="rect10668"
       style="color:#dddddd;fill:none;stroke:none;stroke-width:1;marker:none;visibility:visible;display:inline;overflow:visible"
       transform="matrix(0,1,-1,0,0,0)"
       width="22"
       x="743.36389"
       y="-54.999985" />
    <path
       style="opacity:1;fill:#ffffff;stroke:none"
       d="M 7 3 C 6 3 6 4 6 4 L 6 18 C 6 18 6 19 7 19 L 15 19 C 16 19 16 18 16 18 L 16 4 C 16 4 16 3 15 3 L 7 3 z M 8 5.0039062 L 14 5.0039062 L 14 15 L 8 15 L 8 5.0039062 z M 11 16 A 1 1 0 0 1 12 17 A 1 1 0 0 1 11 18 A 1 1 0 0 1 10 17 A 1 1 0 0 1 11 16 z "
       transform="translate(32.999991,743.36389)"
       id="path10670" />
  </g>
  <g
     inkscape:groupmode="layer"
     id="layer2"
     inkscape:label="animations"
     transform="translate(-32.999991,-291.00173)" />
</svg>
